X:44
T:Sweet Georgia Brown
M:2/2
L:1/8
K:G
"E7"E F2 (^G G3) E|B ^G2 (^c c3) B|e4 B ^G2 (E|E) z/2 B/2 ^c3/2B/2 c e3|
"A7"E F2 (=G G3) E|B G2 (^c c3) A|e4 ^c B2 (A|A) z/2 E/2 F3/2E/2 F A3|
"D7"D E2 (F F3) D|A F2 (B B3) A|d4 A F2 (D|D2) D(E E)D E2|
"G"(B8|B2) D(E E)D "D7+5"E2|"G"B6 "Em7"B2|"B7"A6 B2|
"E7"E F2 (^G G3) E|B ^G2 (^c c3) B|e4 B ^G2 (E|E) z/2 B/2 ^c3/2B/2 c e3|
"A7"E F2 (=G G3) E|B G2 (^c c3) A|e4 ^c B2 (A|A2) z2 "B7"B4|
"Em"B3 (B B2) z2|"B7"A F2 (B B2) B2|"Em"B3 (B B2) z2|"B7"A F2 (B B2) z2|
"G"D E2 (G G) B3|d "B7-5"^d2 (e "E7"e) B3|
"A7"A4 "D7"d B2 (G|1"G" G)D D2 "B7"B2 F2:|2"G"Gz/2 d/2 "D7"e3/2d "G"g z|
